X:1
T:Title
%%score { ( 1 3 4 ) | ( 2 5 ) }
L:1/8
M:3/4
K:F
V:1 bass nm="Grand Piano"
V:3 bass 
V:4 bass 
V:2 treble 
V:5 treble 
V:1
 z2 z2[Q:1/4=100] F,>F, | z6[K:treble] | =B6[K:bass] | z6[K:treble] | B6[K:bass] | %5
 F,2[K:treble] z2 B2 | A6 | [EG]6 | [A,CF]6 |[M:1/4][K:bass] F,>F, |[M:3/4] F,2 F,2[K:treble] d2 | %11
 c4[K:bass] F,>F, | F,2 F,2[K:treble] f2 | e4 d>d | d2 [^Fc]2 [Fc]>[Fc] | [Gc]2 [GB]2 [GB]>[GB] | %16
 [GB]2 A2 A>A | [DA]2 [DG]2 [Fd]2 | [A,CF]4 [G,CE]2 | [CEA]4 [B,EG]2 |[M:2/4] [A,F]4 |[M:1/4] z2 | %22
[M:3/4] z6 | z6 | z6 | z6 | z6 | z6 | z6 | z2 z2 [CEG]>[CEG] | [CFA]2 [DFA]2 [DF=B]2 | %31
 [CEc]4 [CGc]2 | [Fd]2 [EGc]2 [DF=B]2 | [CEc]4 z [CGB] | [CGB]2 [CFA]2 z [A,EA] | %35
 [A,EA]2 [A,EG]2 z [A,EG] | [A,DF]4 .[G,DG]2 | [^CA]4 z [=C^Fc] | [DGc]2 [DGB]2 z [CGB] | %39
 [CGB]2 [CFA]2 [G,DG]2 | F2- [=B,F]2[K:bass] [G,_B,E]2 | [F,A,CF]6 |[M:1/4] F,>F, | %43
[M:3/4] F,2 F,2[K:treble] d2 | c4[K:bass] F,>F, | F,2 F,2[K:treble] f2 | e4 d>d | %47
 d2 [^Fc]2 [Fc]>[Fc] | [Gc]2 [GB]2 [GB]>[GB] | [GB]2 [FA]2 [_EA]>[EA] | [DA]2 [DG]2 [Fd]2 | %51
 [A,CF]4 [G,CE]2 | [CEA]4 [B,EG]2 |[M:2/4] [A,F]4 |[M:4/2] [CFA]4 [CGc]4 [Ff]4 [Fe]4 | %55
 [Fd]4 [CFc]4 [DF=B]4 [CE_B]4 | [CFA]4 [CGc]4 [A,F]4 [DGB]4 | [CFA]8 [EG]8 | [A,F]16- | %59
[M:6/4] [A,F]4 z2 z6 |] %60
V:2
 z6 | z2 z2 [_EFA]2 | [DF_A]6 | z2 z2 [DF_A]2 | [^CEG]6 | z2 z2 [^CEG]2 | [CF]6 | [C,B,C]6 | %8
 [F,,F,]6 |[M:1/4] z2 |[M:3/4] z2 z2[K:treble] [B,F]2 | [A,CF]4 z2 | z2 z2 [DF]2 | %13
 [A,^CG]4 [B,DF]>[B,DF] | [A,D^F]2[K:bass] [D,D]2 [D,D]>[D,D] | [G,D]2 [G,D]2 [E,C]>[E,C] | %16
 [F,C]2 [F,CF]2 [F,_E]>[F,E] | [B,,B,]2 [B,,B,]2 [=B,,_A,]2 | C,4 C,2 | C,4 C,2 |[M:2/4] F,4 | %21
[M:1/4][K:treble] C>C |[M:3/4] F2 F2 G2 | A4 c2 | B2 A2 G2 | A4[K:bass] C,>C, | F,2 F,2 G,2 | %27
 A,4 C2 | B,2 A,2 G,2 | F,4 C,>C, | F,2 D,2 G,_A, | A,4 E,2 | [F,A,]2 G,2 G,2 | C,4 z E, | %34
 F,2 F,2 z ^C, | ^C,2 C,2 z C, | D,4 z E | [A,,E,]4 z D, | G,2 G,2 z C, | F,2 F,2 B,,2 | %40
 z2 _A,2 C,2 | F,,6 |[M:1/4] z2 |[M:3/4] z2 z2[K:treble] [B,F]2 | [A,CF]4 z2 | z2 z2 [DF]2 | %46
 [A,^CG]4 [B,DF]>[B,DF] | [A,D^F]2[K:bass] [D,D]2 [D,D]>[D,D] | [G,D]2 [G,D]2 [E,C]>[E,C] | %49
 [F,C]2 [F,C]2 [A,,F,]>[A,,F,] | [B,,B,]2 [B,,B,]2 [=B,,_A,]2 | C,4 C,2 | C,4 C,2 |[M:2/4] F,4 | %54
[M:4/2] F,4 E,4 [D,A,]4 [C,A,]4 | [B,,B,]4 A,,4 G,,4 C,4 | F,4 E,4 D,4 B,,4 | z8 B,8 | F,16- | %59
[M:6/4] F,4 z2 z6 |] %60
V:3
 x6 | F,2[K:treble] z2 c2 | z2 z2[K:bass] F,>F, | F,2[K:treble] z2 =B2 | z2 z2[K:bass] F,>F, | %5
 z2[K:treble] F,4- | F,6 | x6 | x6 |[M:1/4][K:bass] x2 |[M:3/4] x4[K:treble] x2 | x4[K:bass] x2 | %12
 x4[K:treble] x2 | x6 | x6 | x6 | x6 | x6 | x6 | x6 |[M:2/4] x4 |[M:1/4] x2 |[M:3/4] x6 | x6 | x6 | %25
 x6 | x6 | x6 | x6 | x6 | x6 | x6 | x6 | x6 | x6 | x6 | x6 | x6 | x6 | x6 | [A,C]2 z2[K:bass] z2 | %41
 x6 |[M:1/4] x2 |[M:3/4] x4[K:treble] x2 | x4[K:bass] x2 | x4[K:treble] x2 | x6 | x6 | x6 | x6 | %50
 x6 | x6 | x6 |[M:2/4] x4 |[M:4/2] x16 | x16 | x16 | x16 | x16 |[M:6/4] x12 |] %60
V:4
 x6 | z2[K:treble] F,4- | F,4[K:bass] z2 | z2[K:treble] F,4- | F,4[K:bass] z2 | x2[K:treble] x4 | %6
 x6 | x6 | x6 |[M:1/4][K:bass] x2 |[M:3/4] x4[K:treble] x2 | x4[K:bass] x2 | x4[K:treble] x2 | x6 | %14
 x6 | x6 | x6 | x6 | x6 | x6 |[M:2/4] x4 |[M:1/4] x2 |[M:3/4] x6 | x6 | x6 | x6 | x6 | x6 | x6 | %29
 x6 | x6 | x6 | x6 | x6 | x6 | x6 | x6 | x6 | x6 | x6 | x4[K:bass] x2 | x6 |[M:1/4] x2 | %43
[M:3/4] x4[K:treble] x2 | x4[K:bass] x2 | x4[K:treble] x2 | x6 | x6 | x6 | x6 | x6 | x6 | x6 | %53
[M:2/4] x4 |[M:4/2] x16 | x16 | x16 | x16 | x16 |[M:6/4] x12 |] %60
V:5
 x6 | x6 | x6 | x6 | x6 | x6 | x6 | x6 | x6 |[M:1/4] x2 |[M:3/4] x4[K:treble] x2 | x6 | x6 | x6 | %14
 x2[K:bass] x4 | x6 | x6 | x6 | x6 | x6 |[M:2/4] x4 |[M:1/4][K:treble] x2 |[M:3/4] x6 | x6 | x6 | %25
 x4[K:bass] x2 | x6 | x6 | x6 | x6 | x6 | x6 | x6 | x6 | x6 | x6 | z2 z2 B,,2 | x6 | x6 | x6 | %40
 C,4 z2 | x6 |[M:1/4] x2 |[M:3/4] x4[K:treble] x2 | x6 | x6 | x6 | x2[K:bass] x4 | x6 | x6 | x6 | %51
 x6 | x6 |[M:2/4] x4 |[M:4/2] x16 | x16 | x16 | C,16 | x16 |[M:6/4] x12 |] %60

